assets/image/cars-img3.svg

<svg width="23" height="40" viewBox="0 0 23 40" fill="none" xmlns="http://www.w3.org/2000/svg">
<path d="M22.8572 14.2857V12.8571C22.8572 8.92 19.6543 5.71429 15.7143 5.71429H12.8572V0H10.0001V5.71429H7.14291C3.20291 5.71429 5.55651e-05 8.92 5.55651e-05 12.8571C-0.00701897 14.7432 0.661664 16.5695 1.88497 18.0051C3.10828 19.4406 4.80531 20.3906 6.66863 20.6829L15.7372 22.14C18.2058 22.5371 20.0001 24.64 20.0001 27.1429C20.0001 29.5057 18.0772 31.4286 15.7143 31.4286H7.14291C4.78005 31.4286 2.8572 29.5057 2.8572 27.1429V25.7143H5.55651e-05V27.1429C0.0015689 29.0368 0.754601 30.8527 2.09382 32.1919C3.43304 33.5312 5.24897 34.2842 7.14291 34.2857H10.0001V40H12.8572V34.2857H15.7143C19.6543 34.2857 22.8572 31.0829 22.8572 27.1429C22.8643 25.2568 22.1956 23.4305 20.9723 21.9949C19.749 20.5594 18.0519 19.6094 16.1886 19.3171L7.12005 17.86C4.65148 17.4629 2.8572 15.36 2.8572 12.8571C2.8572 10.4943 4.78005 8.57143 7.14291 8.57143H15.7143C18.0772 8.57143 20.0001 10.4943 20.0001 12.8571V14.2857H22.8572Z" fill="white"/>
</svg>

<svg width="23" height="40" fill="none" xmlns="http://www.w3.org/2000/svg"><path d="M22.857 14.286v-1.429c0-3.937-3.203-7.143-7.143-7.143h-2.857V0H10v5.714H7.143C3.203 5.714 0 8.92 0 12.857a7.892 7.892 0 0 0 6.669 7.826l9.068 1.457A5.046 5.046 0 0 1 20 27.143a4.291 4.291 0 0 1-4.286 4.286H7.143a4.291 4.291 0 0 1-4.286-4.286v-1.429H0v1.429a7.148 7.148 0 0 0 7.143 7.143H10V40h2.857v-5.714h2.857a7.15 7.15 0 0 0 7.143-7.143 7.892 7.892 0 0 0-6.668-7.826L7.12 17.86a5.046 5.046 0 0 1-4.263-5.003 4.29 4.29 0 0 1 4.286-4.286h8.571A4.291 4.291 0 0 1 20 12.857v1.429h2.857Z" fill="#fff"/></svg>
